X:1
T:Title
%%score { ( 1 3 ) | 2 }
L:1/8
Q:1/4=100
M:4/4
K:D
V:1 treble nm="Grand Piano"
V:3 treble 
V:2 bass 
V:1
 dAFB A2 F2 | z4 A4 | cBGF E2 A2 | z4 A4 | dAFB A2 F2 | z4 A4 | cBGF EBAC | D6[K:bass] z2 | %8
w: Flora~Hamilton~Cassel * * * * *||||||||
 CDEF G2 E2 | z4 A4 | CDEF GcBG | z4 A4 | dAFB A2 F2 | z4 A4 | cBGF E2 A2 | z4 A4 | dAFB A2 F2 | %17
w: |||||||||
 z4 A4 | cBGF EBAC |[M:8/4] D8[K:bass] z8 |] %20
w: |||
V:2
 D,2 A,2 [F,D]2 A,2 | D,2 A,2 [F,D]2 z2 | A,,2 A,2 [G,C]2 A,2 | D,2 A,2 [F,D]2 z2 | %4
 D,2 A,2 [F,D]2 A,2 | D,2 A,2 [F,D]2 z2 | A,,2 A,2 [G,C]2 [A,,F,]2 | [D,F,]F,A,F, D,2 z2 | %8
 A,,2 A,2 [E,C]2 [G,A,]2 | [D,F,]2 A,2 [F,D]2 z2 | A,,2 A,2 [E,C]2 A,2 | [D,F,]2 A,2 [F,D]2 z2 | %12
 D,2 A,2 [F,D]2 A,2 | D,2 A,2 [F,D]2 z2 | A,,2 A,2 [G,C]2 A,2 | D,2 A,2 [F,D]2 z2 | %16
 D,2 A,2 [F,D]2 A,2 | D,2 A,2 [F,D]2 z2 | A,,2 A,2 [G,C]2 [A,,F,]2 |[M:8/4] [D,F,]F,A,F, .D,4 z8 |] %20
V:3
 x8 | dAFB z2 A,2 | x8 | DEFG z2 A,2 | x8 | dAFB z2 A,2 | x8 | z4[K:bass] F,2 z2 | x8 | %9
 DEFG z2 A,2 | x8 | F2 G2 z2 A,2 | x8 | dAFB z2 A,2 | x8 | DEFG z2 A,2 | x8 | dAFB z2 A,2 | x8 | %19
[M:8/4] z4[K:bass] .F,4 z8 |] %20

